X:1
T:Swansea, 77.76
T:Swansea, 77.76
T:Harmonized by William Henry Monk, 1875
T:Public Domain Courtesy of the Cyber Hymnal™
C:Harmonized by William Henry Monk, 1875
Z:Public Domain
Z:Courtesy of the Cyber Hymnal™
%%score ( 1 2 ) ( 3 4 )
L:1/8
Q:1/2=107
M:4/2
K:C
V:1 treble 
V:2 treble 
V:3 bass 
V:4 bass 
V:1
 [Ec]4 [Ec]4 [GB]4 [FA]4 | [EG]6 [FA]2 [EG]8 | [CG]4 [CA]4 [CG]4 [CE]4 x4 | (D4 B,2) [CE]2 [B,D]8 | %4
 [Ec]4 [Ec]4 [GB]4 [FA]4 | [EG]6 [FA]2 G8 | [CE]4 [CF]4 [B,G]4 [CE]4 | D8 C8 |] %8
V:2
 x16 | x16 | x20 | C6 x10 | x16 | x8 (E4 D4) | x16 | (C4 B,4) C8 |] %8
V:3
 [C,G,]4 [C,C]4 [E,C]4 [F,C]4 | [C,C]6 [C,C]2 [C,C]8 | [E,G,]4 F,4 G,4 z2 x6 | G,6 G,2 G,8 | %4
 [C,G,]4 [C,C]4 [E,C]4 [F,C]4 | [C,C]6 [C,C]2 ([C,C]4 [B,,G,]4) | %6
 [C,G,]4 [A,,C,]4 [G,,D,]4 (E,2 F,2) | [G,,G,]8 [C,E,]8 |] %8
V:4
 x16 | x16 | x4 F,4 E,6 G,4 F,2 | G,6 G,2 G,8 | x16 | x16 | x12 G,,4 | x16 |] %8

